!!!!SEGMENT: pl-kk--kk-i-322--005_casali-giovanni-battista--credidi-propter-dirupisti-vincula-mea.krn
!!!id: 17xx:2127
!!!COM: Casali, Giovanni Battista
!!!COM-rism: pe30000607
!!!CDT: 1715-1792/07/06
!!!CNT: Italian
!!!OTL: Credidi propter – Dirupisti vincula mea
!!!PDT:
!!!SMS-siglum: PL-Kk
!!!SMS-shelfmark: Kk.I.322
!!!NIFC-rismID: 1001146194
!!!URL-scan: http://repozytorium.nifc.pl/skany/pl-kk-nut--i-322
!!!ONB-nifc: UWAGA: części Credidi: 1. Credidi propter, 2. Calicem salutaris, 3. Vota mea, 4. O Domine, 5. Dirupisti vincula mea, 6. Vota mea, 7. Gloria Patri, 8. Et in saecula saeculorum
!!!SMS-variant:
!!!SMS-altvar:
**kern	**fba	**kern	**kern	**kern	**kern	**kern	**text
*part6	*part6	*part5	*part4	*part3	*part2	*part1	*part1
*staff6	*staff6	*staff5	*staff4	*staff3	*staff2	*staff1	*staff1
*I"Organo	*	*I"Baſso di Ripieno	*I"Tenore di Ripieno	*I"Alto di Ripieno	*I"Canto di Ripieno	*I"Canto Solo	*
*I'Org.	*	*I'B. rip.	*I'T. rip.	*I'A. rip.	*I'S. rip.	*I'S. Solo	*
*clefF4	*	*clefF4	*clefC4	*clefC3	*clefC1	*clefC1	*
*k[f#c#]	*	*k[f#c#]	*k[f#c#]	*k[f#c#]	*k[f#c#]	*k[c#f#]	*
*D:	*	*D:	*D:	*D:	*D:	*D:	*
*M2/4	*	*M2/4	*M2/4	*M2/4	*M2/4	*M2/4	*
=1	=1	=1	=1	=1	=1	=1	=1
!!LO:TX:t=P:problem:4\right:global
!!LO:TX:t=P:problem:8\right:global
!!LO:TX:t=P:problem:16\right:global
!LO:TX:b:i:t=Dirupisti	!	!	!	!	!	!	!
!LO:TX:a:i:t=Solo/Allo	!	!LO:TX:a:i:t=Dirupisti Tace	!LO:TX:a:i:t=Dirupisti Tace	!LO:TX:a:i:t=Dirupisti Tace	!LO:TX:a:i:t=Dirupisti Tace	!LO:TX:a:i:t=Allo'	!
8D/L	.	2ryy	2ryy	2ryy	2ryy	4.dd\	Di-
8D/	.	.	.	.	.	.	.
8D/	.	.	.	.	.	.	.
8D/J	.	.	.	.	.	8ff#\	-ru-
=2	=2	=2	=2	=2	=2	=2	=2
8D/L	.	2ryy	2ryy	2ryy	2ryy	4ff#\	-pi-
8D/	.	.	.	.	.	.	.
8D/	.	.	.	.	.	4dd\	-ſti
8D/J	.	.	.	.	.	.	.
=3	=3	=3	=3	=3	=3	=3	=3
8D/L	.	2ryy	2ryy	2ryy	2ryy	4.ff#\	di-
8D/	.	.	.	.	.	.	.
8D/	.	.	.	.	.	.	.
8D/J	.	.	.	.	.	8aa\	-ru-
=4	=4	=4	=4	=4	=4	=4	=4
8E\L	7	2ryy	2ryy	2ryy	2ryy	8gg\L	-pi-
8E\	.	.	.	.	.	8ff#\J	.
8E\	.	.	.	.	.	8ee\L	-sti
8E\J	.	.	.	.	.	8dd\J	.
!LO:LB:g=original	!	!	!	!	!	!LO:LB:g=original	!
=5	=5	=5	=5	=5	=5	=5	=5
*	*below	*	*	*	*	*	*
8AA/L	4	2ryy	2ryy	2ryy	2ryy	8cc#\L	vin-
8AA/	.	.	.	.	.	8b\J	.
8AA/	.	.	.	.	.	8a\	-cu-
8AA/J	.	.	.	.	.	8g\	-la
=6	=6	=6	=6	=6	=6	=6	=6
8D\L	.	2ryy	2ryy	2ryy	2ryy	8f#/L	me-
8D\	.	.	.	.	.	8g/J	.
8D\	.	.	.	.	.	4a\	-a
8D\J	.	.	.	.	.	.	.
=7	=7	=7	=7	=7	=7	=7	=7
8F#\L	.	2ryy	2ryy	2ryy	2ryy	4.dd\	di-
8F#\	6	.	.	.	.	.	.
8F#\	.	.	.	.	.	.	.
8F#\J	.	.	.	.	.	8aa\	-ru-
=8	=8	=8	=8	=8	=8	=8	=8
8E\L	.	2ryy	2ryy	2ryy	2ryy	8gg\L	-pi-
8E\	5	.	.	.	.	8ff#\J	.
8E\	.	.	.	.	.	8ee\L	-sti
8E\J	.	.	.	.	.	8dd\J	.
=9	=9	=9	=9	=9	=9	=9	=9
8AA/L	.	2ryy	2ryy	2ryy	2ryy	8cc#\L	vin-
8AA/	7	.	.	.	.	8b\J	.
8AA/	.	.	.	.	.	8a\	-cu-
8AA/J	.	.	.	.	.	8g\	-la
!	!	!	!	!	!	!LO:PB:g=original	!
=10	=10	=10	=10	=10	=10	=10	=10
8d\L	.	2ryy	2ryy	2ryy	2ryy	4f#/	me-
8D\	.	.	.	.	.	.	.
8F#\	.	.	.	.	.	4d/	-a
8A\J	.	.	.	.	.	.	.
!LO:LB:g=original	!	!	!	!	!	!	!
=11	=11	=11	=11	=11	=11	=11	=11
!	!	!	!	!	!	!LO:TX:b:t=1	!
8d\L	.	2ryy	2ryy	2ryy	2ryy	2r	.
8D\	.	.	.	.	.	.	.
8F#\	.	.	.	.	.	.	.
8A\J	.	.	.	.	.	.	.
=12	=12	=12	=12	=12	=12	=12	=12
8d\	.	2ryy	2ryy	2ryy	2ryy	8dd\L	ti-
8r	.	.	.	.	.	8ee\J	.
8d\	.	.	.	.	.	8ff#\	-bi
8r	.	.	.	.	.	8gg\	sa-
=13	=13	=13	=13	=13	=13	=13	=13
8d\	.	2ryy	2ryy	2ryy	2ryy	8aa\L	-cri-
8r	.	.	.	.	.	8ff#\J	.
8d\	.	.	.	.	.	8ee\L	-fi-
8r	.	.	.	.	.	8dd\J	.
=14	=14	=14	=14	=14	=14	=14	=14
8c#\	.	2ryy	2ryy	2ryy	2ryy	4ee\	-ca-
8r	.	.	.	.	.	.	.
8c#\	.	.	.	.	.	4a\	-bo
8r	.	.	.	.	.	.	.
!	!	!	!	!	!	!LO:LB:g=original	!
=15	=15	=15	=15	=15	=15	=15	=15
8B\	#6	2ryy	2ryy	2ryy	2ryy	4dd\	hos-
8r	.	.	.	.	.	.	.
8G#X\	5	.	.	.	.	8ff#\	-ti-
8r	.	.	.	.	.	8dd\	-am
!LO:LB:g=original	!	!	!	!	!	!	!
=16	=16	=16	=16	=16	=16	=16	=16
8A\L	94	2ryy	2ryy	2ryy	2ryy	8.dd\	lau-
8A\	83	.	.	.	.	.	.
.	.	.	.	.	.	16cc#\	.
8A\	.	.	.	.	.	4cc#\	-dis
8A\J	.	.	.	.	.	.	.
=17	=17	=17	=17	=17	=17	=17	=17
8A\L	.	2ryy	2ryy	2ryy	2ryy	4r	.
8A\	.	.	.	.	.	.	.
8A\	.	.	.	.	.	4ee\	et
8A\J	.	.	.	.	.	.	.
=18	=18	=18	=18	=18	=18	=18	=18
8A\L	.	2ryy	2ryy	2ryy	2ryy	4ee\	no-
8A\	.	.	.	.	.	.	.
8A\	.	.	.	.	.	4ee\	-men
8A\J	.	.	.	.	.	.	.
=19	=19	=19	=19	=19	=19	=19	=19
!LO:TX:t=P:problem:tu powinien być dodatkowy takt żeby się zgadzało z Canto	!	!	!	!	!	!	!
2ryy	.	2ryy	2ryy	2ryy	2ryy	4ee\	Do-
.	.	.	.	.	.	8ff#\	-mi-
.	.	.	.	.	.	8ee\	-ni
!	!	!	!	!	!	!LO:LB:g=original	!
=20	=20	=20	=20	=20	=20	=20	=20
8D/L	86	2ryy	2ryy	2ryy	2ryy	4dd\	in-
8D/	.	.	.	.	.	.	.
8D#X/	7 5	.	.	.	.	4cc#\	-vo-
8D#/J	.	.	.	.	.	.	.
=21	=21	=21	=21	=21	=21	=21	=21
8E\L	6 4	2ryy	2ryy	2ryy	2ryy	4cc#\	-ca-
8E\	#	.	.	.	.	.	.
8E\	3 5	.	.	.	.	4b\	-bo
8E\J	.	.	.	.	.	.	.
!LO:LB:g=original	!	!	!	!	!	!	!
=22	=22	=22	=22	=22	=22	=22	=22
!	!	!	!	!	!	!LO:TX:b:t=1	!
8E\L	.	2ryy	2ryy	2ryy	2ryy	2r	.
8F#\	.	.	.	.	.	.	.
8E\	.	.	.	.	.	.	.
8D\J	.	.	.	.	.	.	.
=23	=23	=23	=23	=23	=23	=23	=23
8C#/	.	2ryy	2ryy	2ryy	2ryy	4ee\	in-
8r	.	.	.	.	.	.	.
8c#\	.	.	.	.	.	4aa\	-vo-
8r	.	.	.	.	.	.	.
=24	=24	=24	=24	=24	=24	=24	=24
8d\	.	2ryy	2ryy	2ryy	2ryy	8ff#\L	-ca-
8r	.	.	.	.	.	16ee\L	.
.	.	.	.	.	.	16ff#\JJ	.
8d\	.	.	.	.	.	8dd\L	.
8r	.	.	.	.	.	16cc#\L	.
.	.	.	.	.	.	16dd\JJ	.
=25	=25	=25	=25	=25	=25	=25	=25
8d\L	.	2ryy	2ryy	2ryy	2ryy	4a\	.
8D\	.	.	.	.	.	.	.
8F#\	.	.	.	.	.	4r	.
8A\J	.	.	.	.	.	.	.
!	!	!	!	!	!	!LO:LB:g=original	!
=26	=26	=26	=26	=26	=26	=26	=26
8d\	.	2ryy	2ryy	2ryy	2ryy	8r	.
8r	.	.	.	.	.	8a\L	.
8d\	.	.	.	.	.	8dd\	.
!LO:TX:b:i:t=Volti	!	!	!	!	!	!	!
8r	.	.	.	.	.	8ff#\J	.
!LO:PB:g=original	!	!	!	!	!	!	!
=27	=27	=27	=27	=27	=27	=27	=27
8d\	.	2ryy	2ryy	2ryy	2ryy	8aa\L	.
8r	.	.	.	.	.	8ff#\	.
8d\	.	.	.	.	.	8ee\	.
8r	.	.	.	.	.	8dd\J	.
=28	=28	=28	=28	=28	=28	=28	=28
8c#\	.	2ryy	2ryy	2ryy	2ryy	8ee\L	.
8r	.	.	.	.	.	16dd\L	.
.	.	.	.	.	.	16ee\JJ	.
8A\	.	.	.	.	.	8cc#\L	.
8r	.	.	.	.	.	16b\L	.
.	.	.	.	.	.	16cc#\JJ	.
=29	=29	=29	=29	=29	=29	=29	=29
!LO:TX:t=P:problem:mixed beam	!	!	!	!	!	!	!
8A\L	.	2ryy	2ryy	2ryy	2ryy	4a\	.
8AA/	.	.	.	.	.	.	.
8C#/	.	.	.	.	.	4r	.
8E/J	.	.	.	.	.	.	.
=30	=30	=30	=30	=30	=30	=30	=30
8A\	.	2ryy	2ryy	2ryy	2ryy	8r	.
8r	.	.	.	.	.	8a\L	.
8A\	.	.	.	.	.	8cc#\	.
8r	.	.	.	.	.	8ee\J	.
!	!	!	!	!	!	!LO:LB:g=original	!
=31	=31	=31	=31	=31	=31	=31	=31
8c#\	6	2ryy	2ryy	2ryy	2ryy	8aa\L	.
8r	.	.	.	.	.	8ee\	.
8c#\	.	.	.	.	.	8dd\	.
8r	.	.	.	.	.	8cc#\J	.
!LO:LB:g=original	!	!	!	!	!	!	!
=32	=32	=32	=32	=32	=32	=32	=32
8B\	#6	2ryy	2ryy	2ryy	2ryy	8dd\L	.
8r	.	.	.	.	.	16cc#\L	.
.	.	.	.	.	.	16dd\JJ	.
8B\	.	.	.	.	.	8b\L	.
8r	.	.	.	.	.	16a\L	.
.	.	.	.	.	.	16b\JJ	.
=33	=33	=33	=33	=33	=33	=33	=33
!LO:TX:t=P:problem:mixed beam	!	!	!	!	!	!	!
8B\L	#6	2ryy	2ryy	2ryy	2ryy	4g#X/	.
8BB/	.	.	.	.	.	.	.
8D/	.	.	.	.	.	4r	.
8G#X/J	.	.	.	.	.	.	.
=34	=34	=34	=34	=34	=34	=34	=34
8B\	.	2ryy	2ryy	2ryy	2ryy	8r	.
8r	.	.	.	.	.	8g#X\L	.
8B\	.	.	.	.	.	8b\	.
8r	.	.	.	.	.	8dd\J	.
!	!	!	!	!	!	!LO:LB:g=original	!
=35	=35	=35	=35	=35	=35	=35	=35
!LO:TX:t=P:problem:brakuje taktu w Organach lub niepotrzebnie powtórzony takt w Canto	!	!	!	!	!	!LO:TX:t=P:problem:brakuje taktu w Organach lub niepotrzebnie powtórzony takt w Canto	!
2r	.	2ryy	2ryy	2ryy	2ryy	8r	.
.	.	.	.	.	.	8g#X\L	.
.	.	.	.	.	.	8b\	.
.	.	.	.	.	.	8dd\J	.
=36	=36	=36	=36	=36	=36	=36	=36
8G#X\	7	2ryy	2ryy	2ryy	2ryy	8ff#\L	.
8r	.	.	.	.	.	8dd\	.
8G#\	.	.	.	.	.	8cc#\	.
8r	.	.	.	.	.	8dd\J	.
=37	=37	=37	=37	=37	=37	=37	=37
8A\	.	2ryy	2ryy	2ryy	2ryy	4cc#\	.
8r	.	.	.	.	.	.	.
8d\	.	.	.	.	.	8ff#\L	.
8r	.	.	.	.	.	16ee\L	.
.	.	.	.	.	.	16dd\JJ	.
!LO:LB:g=original	!	!	!	!	!	!	!
=38	=38	=38	=38	=38	=38	=38	=38
8c#\	.	2ryy	2ryy	2ryy	2ryy	8ee\L	.
8r	.	.	.	.	.	16dd\L	.
.	.	.	.	.	.	16cc#\JJ	.
8B\	#6	.	.	.	.	8dd\L	.
8r	.	.	.	.	.	16cc#\L	.
.	.	.	.	.	.	16b\JJ	.
=39	=39	=39	=39	=39	=39	=39	=39
8A\L	.	2ryy	2ryy	2ryy	2ryy	4cc#\	.
8A\	.	.	.	.	.	.	.
8A\	.	.	.	.	.	4aa\	-bo
8A\J	.	.	.	.	.	.	.
!	!	!	!	!	!	!LO:LB:g=original	!
=40	=40	=40	=40	=40	=40	=40	=40
8D/L	5	2ryy	2ryy	2ryy	2ryy	4ff#\	in-
8D/	.	.	.	.	.	.	.
8D/	6	.	.	.	.	4dd\	-vo-
8D/J	.	.	.	.	.	.	.
=41	=41	=41	=41	=41	=41	=41	=41
*	*	*	*	*	*	*2\right	*
8E\L	.	2ryy	2ryy	2ryy	2ryy	2cc#\	-ca-
8E\	.	.	.	.	.	.	.
8E\	.	.	.	.	.	.	.
8E\J	.	.	.	.	.	.	.
=42	=42	=42	=42	=42	=42	=42	=42
8E\L	.	2ryy	2ryy	2ryy	2ryy	2b\	.
8E\	#3	.	.	.	.	.	.
8E\	.	.	.	.	.	.	.
8E\J	.	.	.	.	.	.	.
=43	=43	=43	=43	=43	=43	=43	=43
!LO:TX:t=P:problem:mixed beam	!	!	!	!	!	!	!
8A\L	.	2ryy	2ryy	2ryy	2ryy	4a\	-bo
8AA/	.	.	.	.	.	.	.
8C#/	.	.	.	.	.	4r	.
8E/J	.	.	.	.	.	.	.
!LO:LB:g=original	!	!	!	!	!	!	!
=44	=44	=44	=44	=44	=44	=44	=44
!LO:TX:t=P:problem:mixed beam	!	!	!	!	!	!LO:TX:b:t=1	!
8A\L	.	2ryy	2ryy	2ryy	2ryy	2r	.
8AA/	.	.	.	.	.	.	.
8C#/	.	.	.	.	.	.	.
8E/J	.	.	.	.	.	.	.
=45	=45	=45	=45	=45	=45	=45	=45
8A\L	.	2ryy	2ryy	2ryy	2ryy	4.a\	Di-
8A\	.	.	.	.	.	.	.
8A\	.	.	.	.	.	.	.
8A\J	.	.	.	.	.	8cc#\	-ru-
=46	=46	=46	=46	=46	=46	=46	=46
8A\L	.	2ryy	2ryy	2ryy	2ryy	4.cc#\	-pi-
8A\	.	.	.	.	.	.	.
8A\	.	.	.	.	.	.	.
8A\J	.	.	.	.	.	8ee\	-sti
!	!	!	!	!	!	!LO:LB:g=original	!
=47	=47	=47	=47	=47	=47	=47	=47
8A\L	.	2ryy	2ryy	2ryy	2ryy	4ee\	vin-
8A\	.	.	.	.	.	.	.
8A\	.	.	.	.	.	8ff#\	-cu-
8A\J	.	.	.	.	.	8gg\	-la
=48	=48	=48	=48	=48	=48	=48	=48
8d\	.	2ryy	2ryy	2ryy	2ryy	4ff#\	me-
8r	.	.	.	.	.	.	.
8d\	.	.	.	.	.	4dd\	-a
8r	.	.	.	.	.	.	.
=49	=49	=49	=49	=49	=49	=49	=49
8A#X\	6	2ryy	2ryy	2ryy	2ryy	4ff#\	ti-
8r	.	.	.	.	.	.	.
8A#\	.	.	.	.	.	8ff#\	-bi
8r	.	.	.	.	.	8gg\	Sa-
!LO:LB:g=original	!	!	!	!	!	!	!
=50	=50	=50	=50	=50	=50	=50	=50
8A#X\	.	2ryy	2ryy	2ryy	2ryy	4ff#\	-cri-
8r	.	.	.	.	.	.	.
8A#\	5	.	.	.	.	4ee\	-fi-
8r	.	.	.	.	.	.	.
=51	=51	=51	=51	=51	=51	=51	=51
8B\	9 4	2ryy	2ryy	2ryy	2ryy	4ee\	-ca-
8r	.	.	.	.	.	.	.
8B\	8 3	.	.	.	.	4dd\	-bo
8r	.	.	.	.	.	.	.
!	!	!	!	!	!	!LO:LB:g=original	!
=52	=52	=52	=52	=52	=52	=52	=52
8B\	.	2ryy	2ryy	2ryy	2ryy	4r	.
8r	.	.	.	.	.	.	.
8B\	.	.	.	.	.	4dd\	sa-
8r	.	.	.	.	.	.	.
=53	=53	=53	=53	=53	=53	=53	=53
(4B\	6	2ryy	2ryy	2ryy	2ryy	4gg\	-cri-
4A\	6	.	.	.	.	4ff#\	-fi-
=54	=54	=54	=54	=54	=54	=54	=54
4G\	6	2ryy	2ryy	2ryy	2ryy	4ee\	-ca-
4F#\	6	.	.	.	.	4dd\	-bo
=55	=55	=55	=55	=55	=55	=55	=55
4E\	6	2ryy	2ryy	2ryy	2ryy	4cc#\	hos-
4D\)	5	.	.	.	.	8dd\	-ti-
.	.	.	.	.	.	8dd\	-am
!LO:LB:g=original	!	!	!	!	!	!	!
=56	=56	=56	=56	=56	=56	=56	=56
*	*above	*	*	*	*	*	*
!LO:TX:t=P:problem:mixed beam	!	!	!	!	!	!	!
8A\L	5 3	2ryy	2ryy	2ryy	2ryy	8.ee\	lau-
8AA/	.	.	.	.	.	.	.
.	.	.	.	.	.	16cc#\	.
8AA/	.	.	.	.	.	4a\	-diſ
8AA/J	.	.	.	.	.	.	.
=57	=57	=57	=57	=57	=57	=57	=57
8A\L	.	2ryy	2ryy	2ryy	2ryy	4r	.
8A\	.	.	.	.	.	.	.
8A\	.	.	.	.	.	4a\	et
8A\J	.	.	.	.	.	.	.
!	!	!	!	!	!	!LO:PB:g=original	!
=58	=58	=58	=58	=58	=58	=58	=58
8A\L	.	2ryy	2ryy	2ryy	2ryy	2cc#\	no-
8A\	.	.	.	.	.	.	.
8A\	.	.	.	.	.	.	.
8A\J	.	.	.	.	.	.	.
=59	=59	=59	=59	=59	=59	=59	=59
*	*below	*	*	*	*	*	*
8G\L	4 2	2ryy	2ryy	2ryy	2ryy	2ee\	-men
8G\	.	.	.	.	.	.	.
8G\	.	.	.	.	.	.	.
8G\J	.	.	.	.	.	.	.
=60	=60	=60	=60	=60	=60	=60	=60
8F#\L	.	2ryy	2ryy	2ryy	2ryy	4dd\	Do-
8F#\	.	.	.	.	.	.	.
8F#\	6	.	.	.	.	8ff#\	-mi-
8F#\J	.	.	.	.	.	8ee\	-ni
=61	=61	=61	=61	=61	=61	=61	=61
8F#\L	.	2ryy	2ryy	2ryy	2ryy	4dd\	in-
8F#\	.	.	.	.	.	.	.
8F#\	.	.	.	.	.	4a\	-uo-
8F#\J	.	.	.	.	.	.	.
!LO:LB:g=original	!	!	!	!	!	!	!
=62	=62	=62	=62	=62	=62	=62	=62
8G\	.	2ryy	2ryy	2ryy	2ryy	16b\LL	-ca-
.	.	.	.	.	.	16cc#\	.
8r	.	.	.	.	.	16b\	.
.	.	.	.	.	.	16a\JJ	.
8G\	.	.	.	.	.	4b`\	.
8r	.	.	.	.	.	.	.
=63	=63	=63	=63	=63	=63	=63	=63
*	*above	*	*	*	*	*	*
8G\	6	2ryy	2ryy	2ryy	2ryy	8gg\	.
8r	.	.	.	.	.	4ee\	.
8G\	.	.	.	.	.	.	.
8r	.	.	.	.	.	8dd\	.
!	!	!	!	!	!	!LO:LB:g=original	!
=64	=64	=64	=64	=64	=64	=64	=64
8A\	.	2ryy	2ryy	2ryy	2ryy	16cc#\LL	.
.	.	.	.	.	.	16dd\	.
8r	.	.	.	.	.	16cc#\	.
.	.	.	.	.	.	16b\JJ	.
8A\	.	.	.	.	.	4cc#`\	.
8r	.	.	.	.	.	.	.
=65	=65	=65	=65	=65	=65	=65	=65
*	*below	*	*	*	*	*	*
8A\	7	2ryy	2ryy	2ryy	2ryy	8gg\	.
8r	.	.	.	.	.	4ee\	.
8A\	.	.	.	.	.	.	.
8r	.	.	.	.	.	8cc#\	.
=66	=66	=66	=66	=66	=66	=66	=66
8A\	6 4	2ryy	2ryy	2ryy	2ryy	16dd\LL	.
.	.	.	.	.	.	16cc#\	.
8r	.	.	.	.	.	16ff#\	.
.	.	.	.	.	.	16ee\JJ	.
8A\	.	.	.	.	.	4dd`\	.
8r	.	.	.	.	.	.	.
!LO:LB:g=original	!	!	!	!	!	!	!
=67	=67	=67	=67	=67	=67	=67	=67
8A\	.	2ryy	2ryy	2ryy	2ryy	8aa\	.
8r	.	.	.	.	.	4ff#\	.
8A\	.	.	.	.	.	.	.
8r	.	.	.	.	.	8dd\	.
=68	=68	=68	=68	=68	=68	=68	=68
8A\	7	2ryy	2ryy	2ryy	2ryy	16ee\LL	.
.	.	.	.	.	.	16dd\	.
8r	.	.	.	.	.	16gg\	.
.	.	.	.	.	.	16ff#\JJ	.
8A\	.	.	.	.	.	4ee`\	.
8r	.	.	.	.	.	.	.
!	!	!	!	!	!	!LO:LB:g=original	!
=69	=69	=69	=69	=69	=69	=69	=69
8A\	7	2ryy	2ryy	2ryy	2ryy	8gg\	.
8r	.	.	.	.	.	4ff#\	.
8A\	.	.	.	.	.	.	.
8r	.	.	.	.	.	8ee\	.
=70	=70	=70	=70	=70	=70	=70	=70
8d\	.	2ryy	2ryy	2ryy	2ryy	8ff#\L	.
8r	.	.	.	.	.	8dd\J	.
8D/	.	.	.	.	.	8r	.
8r	.	.	.	.	.	16ff#\LL	.
.	.	.	.	.	.	16aa\JJ	.
=71	=71	=71	=71	=71	=71	=71	=71
*	*above	*	*	*	*	*	*
8E\	5	2ryy	2ryy	2ryy	2ryy	8gg\L	.
8r	.	.	.	.	.	8ee\J	.
8C#/	6 5	.	.	.	.	8r	.
8r	.	.	.	.	.	16ee\LL	.
.	.	.	.	.	.	16gg\JJ	.
!LO:LB:g=original	!	!	!	!	!	!	!
=72	=72	=72	=72	=72	=72	=72	=72
8D\	.	2ryy	2ryy	2ryy	2ryy	8ff#\L	.
8r	.	.	.	.	.	8dd\J	.
8F#\	.	.	.	.	.	8r	.
8r	.	.	.	.	.	16ff#\LL	.
.	.	.	.	.	.	16aa\JJ	.
=73	=73	=73	=73	=73	=73	=73	=73
*	*below	*	*	*	*	*	*
8E\	7	2ryy	2ryy	2ryy	2ryy	8gg\L	.
8r	.	.	.	.	.	8ee\J	.
8AA/	7	.	.	.	.	8r	.
8r	.	.	.	.	.	16ee\LL	.
.	.	.	.	.	.	16gg\JJ	.
!	!	!	!	!	!	!LO:LB:g=original	!
=74	=74	=74	=74	=74	=74	=74	=74
8D\L	.	2ryy	2ryy	2ryy	2ryy	8ff#\L	.
8D\	.	.	.	.	.	16ee\L	.
.	.	.	.	.	.	16ff#\JJ	.
8E\	.	.	.	.	.	8gg\L	.
8E\J	.	.	.	.	.	8ee\J	.
=75	=75	=75	=75	=75	=75	=75	=75
8F#\L	.	2ryy	2ryy	2ryy	2ryy	4.aa\	.
8F#\	.	.	.	.	.	.	.
8F#\	.	.	.	.	.	.	.
8F#\J	.	.	.	.	.	16gg\LL	.
.	.	.	.	.	.	16aa\JJ	.
=76	=76	=76	=76	=76	=76	=76	=76
8G\L	5	2ryy	2ryy	2ryy	2ryy	4bb\	.
8G\	.	.	.	.	.	.	.
8G\	6	.	.	.	.	4b\	.
8G\J	.	.	.	.	.	.	.
!LO:PB:g=original	!	!	!	!	!	!	!
=77	=77	=77	=77	=77	=77	=77	=77
8A\L	.	2ryy	2ryy	2ryy	2ryy	2a\	.
8A\	.	.	.	.	.	.	.
8A\	6 4	.	.	.	.	.	.
8A\J	.	.	.	.	.	.	.
=78	=78	=78	=78	=78	=78	=78	=78
8A\L	.	2ryy	2ryy	2ryy	2ryy	2ee\	.
8A\	3	.	.	.	.	.	.
8A\	.	.	.	.	.	.	.
8A\J	.	.	.	.	.	.	.
=79	=79	=79	=79	=79	=79	=79	=79
8B\L	5	2ryy	2ryy	2ryy	2ryy	4dd\	-bo
8d\	.	.	.	.	.	.	.
8B\	.	.	.	.	.	4r	.
8d\J	.	.	.	.	.	.	.
!	!	!	!	!	!	!LO:LB:g=original	!
=80	=80	=80	=80	=80	=80	=80	=80
8F#\L	6	2ryy	2ryy	2ryy	2ryy	4r	.
8d\	.	.	.	.	.	.	.
8F#\	.	.	.	.	.	4aa\	et
8d\J	.	.	.	.	.	.	.
=81	=81	=81	=81	=81	=81	=81	=81
8G\L	.	2ryy	2ryy	2ryy	2ryy	2bb\	no-
8d\	.	.	.	.	.	.	.
8G\	.	.	.	.	.	.	.
8d\J	.	.	.	.	.	.	.
=82	=82	=82	=82	=82	=82	=82	=82
8A\L	.	2ryy	2ryy	2ryy	2ryy	(4cc#\	-men
8c#\	5	.	.	.	.	.	.
8A\	.	.	.	.	.	4ee\)	.
8c#\J	.	.	.	.	.	.	.
!LO:LB:g=original	!	!	!	!	!	!	!
=83	=83	=83	=83	=83	=83	=83	=83
8B\L	.	2ryy	2ryy	2ryy	2ryy	4.dd\	Do-
8d\	5	.	.	.	.	.	.
8B\	.	.	.	.	.	.	.
8d\J	.	.	.	.	.	8cc#\	-mi-
=84	=84	=84	=84	=84	=84	=84	=84
8F#\L	.	2ryy	2ryy	2ryy	2ryy	4dd\	-ni
8d\	6	.	.	.	.	.	.
8F#\	.	.	.	.	.	4r	.
8d\J	.	.	.	.	.	.	.
=85	=85	=85	=85	=85	=85	=85	=85
!	!	!	!	!	!	!LO:TX:b:t=1	!
8G\L	.	2ryy	2ryy	2ryy	2ryy	2r	.
8d\	.	.	.	.	.	.	.
8G\	.	.	.	.	.	.	.
8d\J	.	.	.	.	.	.	.
=86	=86	=86	=86	=86	=86	=86	=86
8G#X\L	5	2ryy	2ryy	2ryy	2ryy	4dd\	in-
8d\	.	.	.	.	.	.	.
8G#\	.	.	.	.	.	4dd\	-vo-
8d\J	.	.	.	.	.	.	.
!	!	!	!	!	!	!LO:LB:g=original	!
=87	=87	=87	=87	=87	=87	=87	=87
*2\right	*	*	*	*	*	*	*
2A;\	6 4	2ryy	2ryy	2ryy	2ryy	4dd;\	-ca-
.	5 3	.	.	.	.	4eeM\	.
=88	=88	=88	=88	=88	=88	=88	=88
4D\	.	2ryy	2ryy	2ryy	2ryy	4dd\	-bo
!LO:TX:t=P:problem:pojedyncza kreska taktowa	!	!	!	!	!	!	!
!	!	!	!	!	!	!LO:TX:b:i:t=Vota mea Tace	!
4r;	.	.	.	.	.	4r	.
!LO:LB:g=original	!	!	!	!	!	!LO:LB:g=original	!
==	==	==	==	==	==	==	==
*-	*-	*-	*-	*-	*-	*-	*-
!!!system-decoration: [(s1,s2,s3,s4,s5)][(s6)]
!!!ENC: Marta Chmielewska
!!!END: 2021-03-24
!!!RDF**kern: < = below
!!!RDF**kern: > = above
!!!ENC:Anastazja Marusiak
!!!END:2021-03-16
